dist/imgs/css3-logo.svg

<svg width="16" height="17" viewBox="0 0 16 17" fill="none" xmlns="http://www.w3.org/2000/svg">
<path d="M1.99969 1.49937L3.09344 14.1L7.99251 15.4994L12.9059 14.0978L13.9997 1.49937H1.99969ZM11.0834 11.965L8.00188 12.8431L4.92501 11.9606L4.71407 9.53062H6.22219L6.32938 10.7669L8.00407 11.2406L8.00813 11.2494L9.67907 10.7853L9.85532 8.78062H6.34344L6.21844 7.21812H9.98876L10.1247 5.62437H4.37469L4.24969 4.09312H11.7678L11.0834 11.965Z" fill="#E53E3E"/>
</svg>

<svg width="16" height="17" fill="none" xmlns="http://www.w3.org/2000/svg"><path d="M2 1.5l1.093 12.6 4.9 1.4 4.913-1.402L14 1.499H2zm9.083 10.465l-3.081.878-3.077-.882-.21-2.43h1.507l.107 1.236 1.675.474.004.008 1.671-.464.176-2.004H6.343l-.125-1.563h3.77l.137-1.594h-5.75l-.125-1.53h7.518l-.685 7.871z" fill="#E53E3E"/></svg>
